icons/chromium-dark.svg

<svg width="256" height="256" viewBox="0 0 256 256" fill="none" xmlns="http://www.w3.org/2000/svg">
<path d="M196 0H60C26.8629 0 0 26.8629 0 60V196C0 229.137 26.8629 256 60 256H196C229.137 256 256 229.137 256 196V60C256 26.8629 229.137 0 196 0Z" fill="#282828"/>
<g clip-path="url(#clip0_183_18)">
<path d="M127.5 128.501L165.39 150.375L127.5 216C175.825 216 215 176.825 215 128.501C215 112.558 210.715 97.6248 203.265 84.7505H127.499L127.5 128.501Z" fill="url(#paint0_linear_183_18)"/>
<path d="M127.499 41C95.1131 41 66.8581 58.6076 51.7281 84.7607L89.6099 150.375L127.499 128.501V84.7503H203.265C188.133 58.6037 159.882 41 127.499 41Z" fill="url(#paint1_linear_183_18)"/>
<path d="M40.0005 128.501C40.0005 176.825 79.1741 216 127.5 216L165.39 150.375L127.5 128.501L89.6108 150.375L51.7291 84.7607C44.2833 97.6315 40 112.56 40 128.499" fill="url(#paint2_linear_183_18)"/>
<path d="M171.251 128.501C171.251 152.663 151.663 172.251 127.5 172.251C103.338 172.251 83.7498 152.663 83.7498 128.501C83.7498 104.338 103.338 84.7505 127.5 84.7505C151.663 84.7505 171.251 104.338 171.251 128.501Z" fill="white"/>
<path d="M163.048 128.501C163.048 148.133 147.132 164.048 127.5 164.048C107.868 164.048 91.9529 148.133 91.9529 128.501C91.9529 108.869 107.868 92.9536 127.5 92.9536C147.132 92.9536 163.048 108.869 163.048 128.501Z" fill="url(#paint3_linear_183_18)"/>
</g>
<defs>
<linearGradient id="paint0_linear_183_18" x1="171.437" y1="84.5699" x2="171.25" y2="216" gradientUnits="userSpaceOnUse">
<stop stop-color="#AFCCFB"/>
<stop offset="1" stop-color="#8BB5F8"/>
</linearGradient>
<linearGradient id="paint1_linear_183_18" x1="114.81" y1="42.3331" x2="122.042" y2="159.918" gradientUnits="userSpaceOnUse">
<stop stop-color="#1972E7"/>
<stop offset="1" stop-color="#1969D5"/>
</linearGradient>
<linearGradient id="paint2_linear_183_18" x1="102.695" y1="84.7607" x2="102.695" y2="216" gradientUnits="userSpaceOnUse">
<stop stop-color="#659CF6"/>
<stop offset="1" stop-color="#4285F4"/>
</linearGradient>
<linearGradient id="paint3_linear_183_18" x1="127.138" y1="93.0889" x2="127.5" y2="164.048" gradientUnits="userSpaceOnUse">
<stop stop-color="#3680F0"/>
<stop offset="1" stop-color="#2678EC"/>
</linearGradient>
<clipPath id="clip0_183_18">
<rect width="175" height="175" fill="white" transform="translate(40 41)"/>
</clipPath>
</defs>
</svg>

<svg xmlns="http://www.w3.org/2000/svg" width="256" height="256" fill="none"><path fill="#282828" d="M196 0H60C26.863 0 0 26.863 0 60v136c0 33.137 26.863 60 60 60h136c33.137 0 60-26.863 60-60V60c0-33.137-26.863-60-60-60"/><g clip-path="url(#clip0_183_18)"><path fill="url(#paint0_linear_183_18)" d="m127.5 128.501 37.89 21.874L127.5 216c48.325 0 87.5-39.175 87.5-87.499a87.07 87.07 0 0 0-11.735-43.75h-75.766z"/><path fill="url(#paint1_linear_183_18)" d="M127.499 41c-32.386 0-60.64 17.608-75.77 43.76l37.88 65.615 37.89-21.874v-43.75h75.766C188.133 58.603 159.882 41 127.499 41"/><path fill="url(#paint2_linear_183_18)" d="M40 128.501C40 176.825 79.175 216 127.5 216l37.89-65.625-37.89-21.874-37.89 21.874-37.88-65.614A87.06 87.06 0 0 0 40 128.499"/><path fill="#fff" d="M171.251 128.501c0 24.162-19.588 43.75-43.751 43.75s-43.75-19.588-43.75-43.75c0-24.163 19.588-43.75 43.75-43.75 24.163 0 43.751 19.587 43.751 43.75"/><path fill="url(#paint3_linear_183_18)" d="M163.048 128.501c0 19.632-15.916 35.547-35.548 35.547s-35.547-15.915-35.547-35.547 15.915-35.547 35.547-35.547 35.548 15.915 35.548 35.547"/></g><defs><linearGradient id="paint0_linear_183_18" x1="171.437" x2="171.25" y1="84.57" y2="216" gradientUnits="userSpaceOnUse"><stop stop-color="#AFCCFB"/><stop offset="1" stop-color="#8BB5F8"/></linearGradient><linearGradient id="paint1_linear_183_18" x1="114.81" x2="122.042" y1="42.333" y2="159.918" gradientUnits="userSpaceOnUse"><stop stop-color="#1972E7"/><stop offset="1" stop-color="#1969D5"/></linearGradient><linearGradient id="paint2_linear_183_18" x1="102.695" x2="102.695" y1="84.761" y2="216" gradientUnits="userSpaceOnUse"><stop stop-color="#659CF6"/><stop offset="1" stop-color="#4285F4"/></linearGradient><linearGradient id="paint3_linear_183_18" x1="127.138" x2="127.5" y1="93.089" y2="164.048" gradientUnits="userSpaceOnUse"><stop stop-color="#3680F0"/><stop offset="1" stop-color="#2678EC"/></linearGradient><clipPath id="clip0_183_18"><path fill="#fff" d="M40 41h175v175H40z"/></clipPath></defs></svg>
